modules/coreui-icons-free/icons/window-maximize.svg

<!-- Generated by IcoMoon.io -->
<svg version="1.1" xmlns="http://www.w3.org/2000/svg" width="24" height="24" viewBox="0 0 24 24">
<title>window-maximize</title>
<path d="M22.125 2.25h-20.234c-0.621 0.001-1.124 0.504-1.125 1.125v18c0.001 0.621 0.504 1.124 1.125 1.125h20.234c0.621-0.001 1.124-0.504 1.125-1.125v-18c-0.001-0.621-0.504-1.124-1.125-1.125h-0zM21.75 3.75v3.374l-19.484-0.023v-3.351zM2.266 21v-12.399l19.484 0.023v12.376z"></path>
</svg>

<svg xmlns="http://www.w3.org/2000/svg" width="24" height="24" viewBox="0 0 24 24"><path d="M22.125 2.25H1.891A1.127 1.127 0 00.766 3.375v18A1.127 1.127 0 001.891 22.5h20.234a1.127 1.127 0 001.125-1.125v-18a1.127 1.127 0 00-1.125-1.125zm-.375 1.5v3.374L2.266 7.101V3.75zM2.266 21V8.601l19.484.023V21z"/></svg>
